X:1
T:Title
%%score 1 2
L:1/8
Q:1/4=80
M:4/4
K:Eb
V:1 treble nm="Strings 1, Treble"
V:2 bass nm="Strings 1, Bass"
V:1
 [EG]3 [EG] [EA][EA][EG]E | [EG]4 [B,E]4 | [B,D]3 [B,E] [DF][FA][EG][DF] | [EG]6 z2 | %4
w: 1.~Sav ior,~ now~ my~ heart~ is~|long ing~|For~ Thy~ won drous~ sav ing~|grace;~|
 [EG]3 [EG] [EA][EA][EG]E | [EG]4 [B,E]4 | [B,D]3 [B,E] [DF][FA][EG][DF] | E6 z2 | %8
w: Life~ has~ been~ a~ bar ren~|des ert,~|While~ my~ sins~ have~ hid~ Thy~|face.~|
 [B,D]3 [B,E] [DF][DA][EG][DF] | E4 [EG]4 | [EB]3 [EB] [EA][EA][EG]E | [DF]6 z2 | %12
w: Oft~ in~ an guish~ have~ I~|strug gled,~|Fought~ the~ blight ing~ pow'r~ of~|sin,~|
 [EG]3 [EG] [EA][EA][EG]E | [EG]4 [B,E]4 | [B,D]3 [B,E] [DF][DA][EG][DF] | E6 z2 | %16
w: But,~ o'er come,~ cast~ down,~ and~|van quished,~|In~ each~ con flict~ have~ I~|been.~|
 [Ge]3 [Ge] [Af][Ae][Bd][Ac] | [GB]4 [EG]4 | [FB]3 [GB] [AB]2 [FB]2 | [GB]6 z2 | %20
w: ||||
 [Ge]3 [Ge] [Af][Ae][Bd][Ac] | [GB]4 [EG]4 | [EB]3 [EG] [DF]2 [B,D]2 | [B,E]6 z2 |] %24
w: ||||
V:2
 [E,B,]3 [E,B,] [E,C][E,C][E,B,][E,G,] | [E,B,]4 [E,G,]4 | %2
 [B,,F,]3 [B,,F,] [B,,B,][B,,B,][B,,B,][B,,B,] | [E,B,]6 z2 | %4
 [E,B,]3 [E,B,] [E,C][E,C][E,B,][E,G,] | [E,B,]4 [E,G,]4 | %6
 [B,,F,]3 [B,,F,] [B,,B,][B,,B,][B,,B,][B,,A,] | [E,G,]6 z2 | %8
 [B,,A,]3 [B,,A,] [B,,A,][B,,F,][B,,B,][B,,A,] | [E,G,]4 [E,B,]4 | %10
 [E,G,]3 [E,G,] [E,C][E,C][E,B,][C,=A,] | [B,,B,]6 z2 | [E,B,]3 [E,B,] [E,C][E,C][E,B,][E,G,] | %13
 [E,B,]4 [E,G,]4 | [B,,A,]3 [B,,A,] [B,,A,][B,,F,][B,,B,][B,,A,] | [E,G,]6 z2 | %16
 [E,B,]3 [E,B,] [A,C][A,C][A,E][A,E] | [E,E]4 [E,B,]4 | [B,,D]3 [B,,E] [B,,F]2 [B,,D]2 | %19
 [E,E]6 z2 | [E,B,]3 [E,B,] [A,C][A,C][A,E][A,E] | [E,E]4 [E,B,]4 | %22
 [E,G,]3 [E,B,] [B,,B,]2 [B,,A,]2 | [E,G,]6 z2 |] %24

